X:213
T:The Shamrock
Z:Jack Campin, http://www.campin.me.uk/
F:Jack Campin's Nine-Note Tunebook
% last edit 03-02-2013
M:9/8
L:1/8
Q:3/8=112
K:D
D2D FED FGA|D2D FED Bcd|D2D FED FGA|Bcd A2G FED:|
FGA AFA A3 |FGA AFD Bcd|FGA AFA AFD|Bcd A2G FED:|


% == Anglo-American songs ===================================================

